X: 27029
T: Miss Grace Hay's
R: jig
M: 6/8
K: Gmajor
G2 c B2 c|dBd efg|G2 c B2 c|dBG AFD|E2 C CEG|
F2 D D2 c|B/c/dB cAF|1 G3 G2 D:|2 G3 G2 A||
d2 g f2 g|afd e^cA|fga B^cd|efd ^cBA|
afa geg|fdf e^cA|Bgf ed^c|d2 d d=cB|
c2 c cac|B2 B BgB|ABA ABc|dBG AFD|
E2C CEG|F2 D D2 c|B/c/dB cAF|G3 G3||

